src/assets/bold/lm-rectangle-arrows-bold.svg

<svg width="24" height="24" viewBox="0 0 24 24" fill="none" xmlns="http://www.w3.org/2000/svg" fill="currentColor">
<path d="M22.5 5V19C22.5 19.3978 22.342 19.7794 22.0607 20.0607C21.7794 20.342 21.3978 20.5 21 20.5H3C2.60218 20.5 2.22064 20.342 1.93934 20.0607C1.65804 19.7794 1.5 19.3978 1.5 19V5C1.5 4.60218 1.65804 4.22064 1.93934 3.93934C2.22064 3.65804 2.60218 3.5 3 3.5L21 3.5C21.3978 3.5 21.7794 3.65804 22.0607 3.93934C22.342 4.22064 22.5 4.60218 22.5 5ZM21 19V5H3V19H21Z" fill="black"/>
<path d="M19.28 12.5306L16.28 15.5306C16.1393 15.6713 15.9484 15.7504 15.7494 15.7504C15.5504 15.7504 15.3595 15.6713 15.2188 15.5306C15.0781 15.3899 14.999 15.199 14.999 15C14.999 14.801 15.0781 14.6101 15.2188 14.4694L16.9391 12.75H7.0609L8.78122 14.4694C8.92195 14.6101 9.00101 14.801 9.00101 15C9.00101 15.199 8.92195 15.3899 8.78122 15.5306C8.64048 15.6713 8.44961 15.7504 8.25059 15.7504C8.05157 15.7504 7.8607 15.6713 7.71996 15.5306L4.71996 12.5306C4.65023 12.461 4.59491 12.3782 4.55717 12.2872C4.51943 12.1961 4.5 12.0986 4.5 12C4.5 11.9014 4.51943 11.8038 4.55717 11.7128C4.59491 11.6217 4.65023 11.539 4.71996 11.4694L7.71996 8.46936C7.8607 8.32863 8.05157 8.24957 8.25059 8.24957C8.44961 8.24957 8.64048 8.32863 8.78122 8.46936C8.92195 8.61009 9.00101 8.80097 9.00101 8.99999C9.00101 9.19901 8.92195 9.38988 8.78122 9.53061L7.0609 11.25H16.9391L15.2188 9.53061C15.0781 9.38988 14.999 9.19901 14.999 8.99999C14.999 8.80097 15.0781 8.61009 15.2188 8.46936C15.3595 8.32863 15.5504 8.24957 15.7494 8.24957C15.9484 8.24957 16.1393 8.32863 16.28 8.46936L19.28 11.4694C19.3498 11.539 19.4051 11.6217 19.4428 11.7128C19.4806 11.8038 19.5 11.9014 19.5 12C19.5 12.0986 19.4806 12.1961 19.4428 12.2872C19.4051 12.3782 19.3498 12.461 19.28 12.5306Z" fill="black"/>
</svg>

<svg xmlns="http://www.w3.org/2000/svg" width="24" height="24" fill="currentColor" viewBox="0 0 24 24">
  <path d="M22.5 5v14a1.5 1.5 0 0 1-1.5 1.5H3A1.5 1.5 0 0 1 1.5 19V5A1.5 1.5 0 0 1 3 3.5h18A1.5 1.5 0 0 1 22.5 5ZM21 19V5H3v14h18Z"/>
  <path d="m19.28 12.53-3 3a.75.75 0 0 1-1.061-1.06l1.72-1.72H7.061l1.72 1.72a.75.75 0 1 1-1.061 1.06l-3-3a.75.75 0 0 1 0-1.06l3-3a.75.75 0 0 1 1.061 1.06l-1.72 1.72h9.878l-1.72-1.72a.75.75 0 0 1 1.061-1.06l3 3a.747.747 0 0 1 0 1.06Z"/>
</svg>
